X:137
T: Hui guannan
N: C1633
O: China, Hebei, Zhangbei
S: IV, 56]
R: Xiaodiao. Xu zainian]
M: 4/4
L: 1/16
K: Bb
d3dd2cdc2a2g2gg | f2f4gfd4c4 |
b3bb2d2c2d2c2b2 | c2a2g2gfg2f2d2cd | f2f4gfd4c3
c | d2d2d4c2d2c2c2 | d2cdc2g2b4g4 |
c2a2a4f2g2f2d2 | c8f3gf2df | c6d2c8

